X:163
T:Scotsman Over the Border (j)
B:NFID.233a  ("untitled jig")
163scots
S:PT
L:1/8
M:6/8
R:jig
Q:320
K:D
D2D FDF|AFA dcB|BdB BAB|def edB|
ADD FDF|AFA dcA|B/c/dB AFA|1 dAF EDC:|\
[2 dAF EFA||
%B
dfa afa|bag f2e|dfa afd|dfd ecA|
dfa afa|bag f2e|fdA B/c/dB|AFD EFE|
D2a afa|bag f2e|dfa adf|dfd ecA|
dfa afa bag f2e|fdB B/c/dB|AFD EDC||

%%%

